X: 1503
T: the Contradiction   #2
T: an frio.trai.dea.cd.
R: reel
B: O'Neill's 1850 "Music of Ireland" #1503
O: J.O'Neill
Z: transcribed by John B. Walsh, walsh@math.ubc.ca 8/23/96
Z: Compacted via repeats and multiple endings [JC]
M: C|
L: 1/8
K: A
e !segno!|:\
c2 ((3{d}cBA) (BE)(ED) | CEAc dfed | c2 ((3{d}cBA) [1 GABc | defg afed :|[2 GABg | afec A/A/A A |]
|: g |\
aA A/A/A (aA)cA | GBEB EBEg |1 aA A/A/A (aA)cA | GBEB cAA :|2 agfe fedc | dEFG A2 |]
e2 |: ae(c'e) ae(c'e) | be(d'e) be(d'e) | c'e(e'e)c'e(e'e) | dcBA (EA)A2 :| cefe cefe | dcBA (BE)E2 |
| cefe cefe | fagb afed || cefe cefe | ((3fga) ec (BE)E2 | ecea fdfa | (gb)eg (ae)f!segno!d |]
